X: 1
T: A Duck Walks Into A Pharmacy....
M: 6/8
L: 1/8
R: jig
K: Ddor
DFA DFA|GEC EFG|DFA def|edc d2 e|
~f3 fed|ecA AGF|EGc edc|1 AGE DFE :|2 AGE D^FA||
K: D mix
d3 def|afd fed|~c3 cde|gag fe^c|
def def|afd fed|~c3 edc|1 AGE DFA:|2 AGE D=FE||
